X:1
T: Miss Douglass Moncrief's Reel
C:R. Mackintosh
R:Reel
Q: 232
K:G
M:4/4
L:1/8
|:c|BG dG BG GB|cE AG FD Dc|BG dG BG GB|Ec AF G2 Gc|
BG dG BG GB|cE AG FD Dc|BG dB gd ec|DG AF G3c|
Bc dg ec gc|BG dG FD Dc|Bc dg ef ge|dB cA G1/2G1/2G Gc|
Bc dg ec gc|BG AG FD Dc|Bd gb ce ag|fd ef g1/2g1/2g:|
